app/dist/common/images/nico-resources-limited.svg

<svg height="18" viewBox="0 0 18 18" width="18" xmlns="http://www.w3.org/2000/svg"><path d="m0 0h18v18h-18z" fill="#f0f3fa"/><path d="m2 6v6h1.43v-3.28l2 3.28h1.57v-4.43c-.1.11-.4.34-.79.34-.37 0-.54-.23-.64-.34v1.73l-1.96-3.3z" fill="#839097"/><circle cx="6.25" cy="6.75" fill="#00acba" r=".75"/><path d="m10.07 12c.88 0 1.67-.36 2.23-.95a2.62 2.62 0 0 1 -.92-1.46 1.5 1.5 0 1 1 0-1.18c.13-.59.46-1.1.92-1.46a3.09 3.09 0 0 0 -5.3 2.05c0 1.66 1.37 3 3.07 3zm5.93-3a2.25 2.25 0 1 1 -4.5 0 2.25 2.25 0 0 1 4.5 0zm-1.23 0a1.02 1.02 0 1 1 -2.04 0 1.02 1.02 0 0 1 2.04 0z" fill="#3453a2" fill-rule="evenodd"/></svg>

<!-- by TradingView --><svg width="18" height="18" viewBox="0 0 18 18" xmlns="http://www.w3.org/2000/svg"><path fill="#F0F3FA" d="M0 0h18v18H0z"/><path d="M2 6v6h1.43V8.72l2 3.28H7V7.57c-.1.11-.4.34-.79.34-.37 0-.54-.23-.64-.34V9.3L3.61 6H2Z" fill="#839097"/><circle cx="6.25" cy="6.75" r=".75" fill="#00ACBA"/><path fill-rule="evenodd" d="M10.07 12c.88 0 1.67-.36 2.23-.95a2.62 2.62 0 0 1-.92-1.46 1.5 1.5 0 1 1 0-1.18c.13-.59.46-1.1.92-1.46A3.09 3.09 0 0 0 7 9c0 1.66 1.37 3 3.07 3ZM16 9a2.25 2.25 0 1 1-4.5 0A2.25 2.25 0 0 1 16 9Zm-1.23 0a1.02 1.02 0 1 1-2.04 0 1.02 1.02 0 0 1 2.04 0Z" fill="#3453A2"/></svg>
